X:302
T: Martinslied
N: A0348
O: Europa, Mitteleuropa, Deutschland
N: Lambacher Hs. (15. Jh.) fol. 170b.
R: Romanze, Ballade, Lied
M: 4/4
L: 1/4
K: D
d2d2 | A2B2 | =c2A2 | =F2
G2 | A2G2 | =F2E2 | D2D2
DDDE | =F2FG | AAGG | A3
A | AAcc | d2e2
=fedc | d3d | dd=cc | A2GG | =FFEE | D4

